svg/editor/AZ_sort_ascending_letters_fill.svg

<?xml version="1.0" encoding="UTF-8"?>
<svg width="24px" height="24px" viewBox="0 0 24 24" version="1.1" xmlns="http://www.w3.org/2000/svg" xmlns:xlink="http://www.w3.org/1999/xlink">
    <title>A-Z_sort_ascending_letters_fill</title>
    <g id="页面-1" stroke="none" stroke-width="1" fill="none" fill-rule="evenodd">
        <g id="Editor" transform="translate(-240.000000, -144.000000)">
            <g id="A-Z_sort_ascending_letters_fill" transform="translate(240.000000, 144.000000)">
                 <path d="M24,0 L24,24 L0,24 L0,0 L24,0 Z M12.5934901,23.257841 L12.5819402,23.2595131 L12.5108777,23.2950439 L12.4918791,23.2987469 L12.4918791,23.2987469 L12.4767152,23.2950439 L12.4056548,23.2595131 C12.3958229,23.2563662 12.3870493,23.2590235 12.3821421,23.2649074 L12.3780323,23.275831 L12.360941,23.7031097 L12.3658947,23.7234994 L12.3769048,23.7357139 L12.4804777,23.8096931 L12.4953491,23.8136134 L12.4953491,23.8136134 L12.5071152,23.8096931 L12.6106902,23.7357139 L12.6232938,23.7196733 L12.6232938,23.7196733 L12.6266527,23.7031097 L12.609561,23.275831 C12.6075724,23.2657013 12.6010112,23.2592993 12.5934901,23.257841 L12.5934901,23.257841 Z M12.8583906,23.1452862 L12.8445485,23.1473072 L12.6598443,23.2396597 L12.6498822,23.2499052 L12.6498822,23.2499052 L12.6471943,23.2611114 L12.6650943,23.6906389 L12.6699349,23.7034178 L12.6699349,23.7034178 L12.678386,23.7104931 L12.8793402,23.8032389 C12.8914285,23.8068999 12.9022333,23.8029875 12.9078286,23.7952264 L12.9118235,23.7811639 L12.8776777,23.1665331 C12.8752882,23.1545897 12.8674102,23.1470016 12.8583906,23.1452862 L12.8583906,23.1452862 Z M12.1430473,23.1473072 C12.1332178,23.1423925 12.1221763,23.1452606 12.1156365,23.1525954 L12.1099173,23.1665331 L12.0757714,23.7811639 C12.0751323,23.7926639 12.0828099,23.8018602 12.0926481,23.8045676 L12.108256,23.8032389 L12.3092106,23.7104931 L12.3186497,23.7024347 L12.3186497,23.7024347 L12.3225043,23.6906389 L12.340401,23.2611114 L12.337245,23.2485176 L12.337245,23.2485176 L12.3277531,23.2396597 L12.1430473,23.1473072 Z" id="MingCute" fill-rule="nonzero"></path>
                <path d="M10.7585,13 C12.1363867,13 12.8494161,14.6104216 11.9849881,15.6283057 L11.8899,15.7314 L8.62124,19 L10.9999,19 C11.8283,19 12.4999,19.6716 12.4999,20.5 C12.4999,21.2796706 11.9049879,21.9204457 11.1443558,21.9931332 L10.9999,22 L5.24134,22 C3.863405,22 3.15041132,20.3895784 4.01487792,19.3716943 L4.10997,19.2686 L7.3786,16 L4.99992,16 C4.17149,16 3.49992,15.3284 3.49992,14.5 C3.49992,13.7203294 4.09480554,13.0795543 4.85545954,13.0068668 L4.99992,13 L10.7585,13 Z M16.9999,3 C17.8283,3 18.4999,3.67157 18.4999,4.5 L18.4999,16.2069 L18.7677,15.9392 C19.3535,15.3534 20.3032,15.3534 20.889,15.9392 C21.4748,16.5249 21.4748,17.4747 20.889,18.0605 L18.0606,20.8889 C17.4748,21.4747 16.525,21.4747 15.9392,20.8889 L13.1108,18.0605 C12.525,17.4747 12.525,16.5249 13.1108,15.9392 C13.6966,15.3534 14.6463,15.3534 15.2321,15.9392 L15.4999,16.2069 L15.4999,4.5 C15.4999,3.67157 16.1715,3 16.9999,3 Z M7.99992,2 C8.87532937,2 9.66212742,2.51591797 10.0158351,3.30498627 L10.0807,3.46637 L12.4125,9.9955 C12.6912,10.7757 12.2846,11.634 11.5044,11.9126 C10.7701882,12.1748118 9.96665273,11.8301529 9.64236403,11.1382397 L9.5857,11 L6.41414,11 C6.1339,11.7847 5.27558,12.1912 4.49542,11.9126 C3.76114235,11.6503882 3.3578045,10.8746706 3.54518938,10.1338592 L3.58731,9.9955 L5.91914,3.46637 C6.2332,2.587 7.06615,2 7.99992,2 Z M7.99992,6.55982 L7.48557,8 L8.51427,8 L7.99992,6.55982 Z" id="形状" fill="#09244B"></path>
            </g>
        </g>
    </g>
</svg>

<svg xmlns="http://www.w3.org/2000/svg" width="24" height="24"><g fill="none" fill-rule="evenodd"><path d="M24 0v24H0V0h24ZM12.593 23.258l-.011.002-.071.035-.02.004-.014-.004-.071-.035c-.01-.004-.019-.001-.024.005l-.004.01-.017.428.005.02.01.013.104.074.015.004.012-.004.104-.074.012-.016.004-.017-.017-.427c-.002-.01-.009-.017-.017-.018Zm.265-.113-.013.002-.185.093-.01.01-.003.011.018.43.005.012.008.007.201.093c.012.004.023 0 .029-.008l.004-.014-.034-.614c-.003-.012-.01-.02-.02-.022Zm-.715.002a.023.023 0 0 0-.027.006l-.006.014-.034.614c0 .012.007.02.017.024l.015-.002.201-.093.01-.008.004-.011.017-.43-.003-.012-.01-.01-.184-.092Z"/><path fill="#09244B" d="M10.759 13c1.377 0 2.09 1.61 1.226 2.628l-.095.103L8.62 19H11a1.5 1.5 0 0 1 .144 2.993L11 22H5.24c-1.378 0-2.09-1.61-1.226-2.628l.095-.103L7.379 16h-2.38a1.5 1.5 0 0 1-.144-2.993L5 13h5.759Zm6.24-10a1.5 1.5 0 0 1 1.5 1.5v11.707l.269-.268a1.5 1.5 0 1 1 2.121 2.122l-2.828 2.828a1.5 1.5 0 0 1-2.122 0l-2.828-2.828a1.5 1.5 0 1 1 2.121-2.122l.268.268V4.5A1.5 1.5 0 0 1 17 3ZM8 2a2.21 2.21 0 0 1 2.017 1.305l.065.161 2.332 6.53a1.5 1.5 0 0 1-2.77 1.142L9.585 11H6.414a1.501 1.501 0 0 1-2.869-.866l.042-.139L5.92 3.467A2.21 2.21 0 0 1 8 2Zm0 4.56L7.487 8h1.028L8 6.56Z"/></g></svg>
